X: 2227
Q: "Reel."
M: C
L: 1/8
K: G
|:\
vGEDE GABd | e2(de) gedB |\
e2(de) gedB | A2(AG) AcBA |\
egde BdAB | G2G2G2 :|
|:\
(3(BcB) AB (3(BcB) GB | (3(cec) Ac (3(cec) Ac |\
(3(BcB) GB (3(BcB) GB | AGEG A2(Ac) |\
(3(BcB) GB (3(BcB) GB | (3(cec) Ac (3(cec) Ac |\


